X: 141287
T: Noonday Feast
S: "Johnny O'Leary of Sliabh Luachra" (#263)
Z: B.Black
L: 1/8
M: 6/8
R: jig
K: G
B2A BGE|GBA GBd|gfe dBG|A2B AGA|
B/c/BA BGE|GBA GBd|gfe dBA|BGG G3 :|
gfg efg|eag fed|gfg edB|BAG AGA|
B/A/BA BGE|GBA GBd|gfe dBA|BGG G3 :|
